X: 29454
T: Night Lullaby
R: waltz
M: 3/4
K: Bminor
A2 d2 e2|f4 d2|g2 f2 e2|f6|
g2 f2 e2|d4 B2|cc B2 A2|B6|
f2 d2 f2|g2 e2 d2|ce ce dc|B6||
B,2 F2 Bc|d2 c2 B2|B,D =F_G =FC|^F,6|
B,2 G,2 F,2|=F,2 ^F,2 ^F,2||

